SVG_Azure_Grouped/Security/Azure Information Protection.svg

<?xml version="1.0" encoding="UTF-8" standalone="no"?>
<!-- Generated by Microsoft Visio, SVG Export Azure Information Protection.svg Page-1 -->

<svg
   xmlns:dc="http://purl.org/dc/elements/1.1/"
   xmlns:cc="http://creativecommons.org/ns#"
   xmlns:rdf="http://www.w3.org/1999/02/22-rdf-syntax-ns#"
   xmlns:svg="http://www.w3.org/2000/svg"
   xmlns="http://www.w3.org/2000/svg"
   xmlns:xlink="http://www.w3.org/1999/xlink"
   xmlns:sodipodi="http://sodipodi.sourceforge.net/DTD/sodipodi-0.dtd"
   xmlns:inkscape="http://www.inkscape.org/namespaces/inkscape"
   width="0.62985444in"
   height="0.7873801in"
   viewBox="0 0 45.349494 56.691508"
   xml:space="preserve"
   class="st6"
   version="1.1"
   id="svg57"
   sodipodi:docname="Azure Information Protection.svg"
   style="font-size:12px;overflow:visible;color-interpolation-filters:sRGB;fill:none;fill-rule:evenodd;stroke-linecap:square;stroke-miterlimit:3"
   inkscape:version="0.92.5 (2060ec1f9f, 2020-04-08)"><metadata
   id="metadata61"><rdf:RDF><cc:Work
       rdf:about=""><dc:format>image/svg+xml</dc:format><dc:type
         rdf:resource="http://purl.org/dc/dcmitype/StillImage" /></cc:Work></rdf:RDF></metadata><sodipodi:namedview
   pagecolor="#ffffff"
   bordercolor="#666666"
   borderopacity="1"
   objecttolerance="10"
   gridtolerance="10"
   guidetolerance="10"
   inkscape:pageopacity="0"
   inkscape:pageshadow="2"
   inkscape:window-width="640"
   inkscape:window-height="480"
   id="namedview59"
   showgrid="false"
   inkscape:zoom="1.8365233"
   inkscape:cx="30.236153"
   inkscape:cy="18.900351"
   inkscape:window-x="0"
   inkscape:window-y="0"
   inkscape:window-maximized="0"
   inkscape:current-layer="svg57" />
	<style
   type="text/css"
   id="style2">
	<![CDATA[
		.st1 {fill:url(#grad0-5);stroke:none;stroke-linecap:butt;stroke-width:0.75}
		.st2 {fill:#50e6ff;stroke:none;stroke-linecap:butt;stroke-width:0.75}
		.st3 {fill:#ffffff;fill-opacity:0.2;stroke:none;stroke-linecap:butt;stroke-width:0.75}
		.st4 {fill:#198ab3;stroke:none;stroke-linecap:butt;stroke-width:0.75}
		.st5 {fill:url(#grad0-15);stroke:none;stroke-linecap:butt;stroke-width:0.75}
		.st6 {fill:none;fill-rule:evenodd;font-size:12px;overflow:visible;stroke-linecap:square;stroke-miterlimit:3}
	]]>
	</style>

	<defs
   id="Patterns_And_Gradients">
		<linearGradient
   id="grad0-5"
   x1="0"
   y1="35.473719"
   x2="50.671081"
   y2="35.473719"
   gradientTransform="scale(0.8938037,1.1188139)"
   gradientUnits="userSpaceOnUse">
			<stop
   offset="0.22"
   stop-color="#32d4f5"
   stop-opacity="1"
   id="stop4" />
			<stop
   offset="1"
   stop-color="#198ab3"
   stop-opacity="1"
   id="stop6" />
		</linearGradient>
		<linearGradient
   id="grad0-15"
   x1="0"
   y1="0"
   x2="1"
   y2="0"
   gradientTransform="rotate(-99.914946,0.5,0.5)">
			<stop
   offset="0"
   stop-color="#cccccc"
   stop-opacity="1"
   id="stop9" />
			<stop
   offset="1"
   stop-color="#fcfcfc"
   stop-opacity="1"
   id="stop11" />
		</linearGradient>
	<linearGradient
   inkscape:collect="always"
   xlink:href="#grad0-15"
   id="linearGradient4571"
   gradientTransform="scale(1.0319382,0.96905026)"
   x1="0"
   y1="91.353153"
   x2="8.1029853"
   y2="91.353153"
   gradientUnits="userSpaceOnUse" /><linearGradient
   inkscape:collect="always"
   xlink:href="#grad0-15"
   id="linearGradient4573"
   gradientTransform="scale(1.0319382,0.96905026)"
   x1="0"
   y1="91.353153"
   x2="8.1029853"
   y2="91.353153"
   gradientUnits="userSpaceOnUse" /><linearGradient
   inkscape:collect="always"
   xlink:href="#grad0-15"
   id="linearGradient4575"
   gradientTransform="scale(1.0319382,0.96905026)"
   x1="0"
   y1="91.353153"
   x2="8.1029853"
   y2="91.353153"
   gradientUnits="userSpaceOnUse" /></defs>
	<g
   id="g55"
   transform="translate(-4.5355124,-5.6727897)">
		<title
   id="title15">Page-1</title>
		<g
   id="group16898-1"
   transform="translate(4.53543,-34.0157)">
			<title
   id="title17">Azure Information Protection.16898</title>
			<g
   id="shape16899-2">
				<title
   id="title19">Sheet.16899</title>
				<path
   d="M 42.95,66.92 H 39.6 V 57.24 A 19.4328,18.2485 -180 0 0 34.62,44.93 16.0212,15.0448 -180 0 0 22.38,39.69 16.0212,15.0448 -180 0 0 10,44.93 19.1652,17.9973 -180 0 0 5.02,57.24 v 9.68 H 2.31 A 2.3413,2.19862 -180 0 0 0,69.08 v 25.13 a 2.3413,2.19862 -180 0 0 2.31,2.17 h 40.64 a 2.37475,2.23003 -180 0 0 2.34,-2.17 V 69.08 a 2.37475,2.23003 -180 0 0 -2.34,-2.16 z m -11.28,0 H 13.08 v -9.83 a 10.6362,9.988 0 0 1 2.91,-6.76 8.39523,7.88361 0 0 1 6.29,-2.7 8.49558,7.97784 0 0 1 6.32,2.7 10.6696,10.0194 0 0 1 1.07,1.35 10.0341,9.42264 0 0 1 2.04,5.37 z"
   class="st1"
   id="path21"
   inkscape:connector-curvature="0"
   style="fill:url(#grad0-5);stroke:none;stroke-width:0.75;stroke-linecap:butt" />
			</g>
			<g
   id="shape16900-6"
   transform="translate(0.869626,-0.659585)">
				<title
   id="title24">Sheet.16900</title>
				<path
   d="M 42.18,67.58 H 1.47 A 2.20751,2.07298 -180 0 0 0,68.11 l 43.65,28.27 a 2.24096,2.10439 -180 0 0 0.83,-1.64 V 69.62 a 2.37475,2.23003 -180 0 0 -2.3,-2.04 z"
   class="st2"
   id="path26"
   inkscape:connector-curvature="0"
   style="fill:#50e6ff;stroke:none;stroke-width:0.75;stroke-linecap:butt" />
			</g>
			<g
   id="shape16901-8"
   transform="translate(0.0668943,-0.659585)">
				<title
   id="title29">Sheet.16901</title>
				<path
   d="m 2.34,67.58 h 40.67 a 2.3413,2.19862 0 0 1 1.51,0.53 L 0.84,96.38 A 2.3413,2.19862 0 0 1 0,94.74 V 69.62 a 2.40819,2.26143 0 0 1 2.34,-2.04 z"
   class="st3"
   id="path31"
   inkscape:connector-curvature="0"
   style="fill:#ffffff;fill-opacity:0.2;stroke:none;stroke-width:0.75;stroke-linecap:butt" />
			</g>
			<g
   id="shape16902-10"
   transform="translate(9.96725,-5.18245)">
				<title
   id="title34">Sheet.16902</title>
				<path
   d="M 20.8,96.38 0,86.64 20.8,77 l 0.94,1.82 -16.89,7.82 16.89,7.95 z"
   class="st4"
   id="path36"
   inkscape:connector-curvature="0"
   style="fill:#198ab3;stroke:none;stroke-width:0.75;stroke-linecap:butt" />
			</g>
			<g
   id="shape16903-12"
   transform="translate(8.26145,-10.9303)">
				<title
   id="title39">Sheet.16903</title>
				<ellipse
   cx="4.1808901"
   cy="92.451897"
   rx="4.1808901"
   ry="3.9261"
   class="st5"
   id="ellipse41"
   style="fill:url(#linearGradient4571);stroke:none;stroke-width:0.75;stroke-linecap:butt" />
			</g>
			<g
   id="shape16904-16"
   transform="translate(26.8915,-19.3478)">
				<title
   id="title44">Sheet.16904</title>
				<ellipse
   cx="4.1808901"
   cy="92.451897"
   rx="4.1808901"
   ry="3.9261"
   class="st5"
   id="ellipse46"
   style="fill:url(#linearGradient4573);stroke:none;stroke-width:0.75;stroke-linecap:butt" />
			</g>
			<g
   id="shape16905-19"
   transform="translate(26.8915,-2.16721)">
				<title
   id="title49">Sheet.16905</title>
				<ellipse
   cx="4.1808901"
   cy="92.451897"
   rx="4.1808901"
   ry="3.9261"
   class="st5"
   id="ellipse51"
   style="fill:url(#linearGradient4575);stroke:none;stroke-width:0.75;stroke-linecap:butt" />
			</g>
		</g>
	</g>
</svg>

<?xml version="1.0" encoding="UTF-8" standalone="no"?>
<!DOCTYPE svg PUBLIC "-//W3C//DTD SVG 1.1//EN" "http://www.w3.org/Graphics/SVG/1.1/DTD/svg11.dtd">
<!-- Generated by Microsoft Visio, SVG Export Azure Information Protection.svg Page-1 -->
<svg xmlns="http://www.w3.org/2000/svg" xmlns:xlink="http://www.w3.org/1999/xlink" xmlns:ev="http://www.w3.org/2001/xml-events"
		width="0.755906in" height="1.33858in" viewBox="0 0 54.4252 96.378" xml:space="preserve" color-interpolation-filters="sRGB"
		class="st6">
	<style type="text/css">
	<![CDATA[
		.st1 {fill:url(#grad0-5);stroke:none;stroke-linecap:butt;stroke-width:0.75}
		.st2 {fill:#50e6ff;stroke:none;stroke-linecap:butt;stroke-width:0.75}
		.st3 {fill:#ffffff;fill-opacity:0.2;stroke:none;stroke-linecap:butt;stroke-width:0.75}
		.st4 {fill:#198ab3;stroke:none;stroke-linecap:butt;stroke-width:0.75}
		.st5 {fill:url(#grad0-15);stroke:none;stroke-linecap:butt;stroke-width:0.75}
		.st6 {fill:none;fill-rule:evenodd;font-size:12px;overflow:visible;stroke-linecap:square;stroke-miterlimit:3}
	]]>
	</style>

	<defs id="Patterns_And_Gradients">
		<linearGradient id="grad0-5" x1="0" y1="0" x2="1" y2="0" gradientTransform="rotate(88.546233687646 0.5 0.5)">
			<stop offset="0.22" stop-color="#32d4f5" stop-opacity="1"/>
			<stop offset="1" stop-color="#198ab3" stop-opacity="1"/>
		</linearGradient>
		<linearGradient id="grad0-15" x1="0" y1="0" x2="1" y2="0" gradientTransform="rotate(-99.914945678475 0.5 0.5)">
			<stop offset="0" stop-color="#cccccc" stop-opacity="1"/>
			<stop offset="1" stop-color="#fcfcfc" stop-opacity="1"/>
		</linearGradient>
	</defs>
	<g>
		<title>Page-1</title>
		<g id="group16505-1" transform="translate(4.53543,-34.0157)">
			<title>Azure Information Protection.16505</title>
			<g id="shape16506-2">
				<title>Sheet.16506</title>
				<path d="M42.95 66.92 L39.6 66.92 L39.6 57.24 A19.4328 18.2485 -180 0 0 34.62 44.93 A16.0212 15.0448 -180 0 0 22.38
							 39.69 A16.0212 15.0448 -180 0 0 10 44.93 A19.1652 17.9973 -180 0 0 5.02 57.24 L5.02 66.92 L2.31 66.92
							 A2.3413 2.19862 -180 0 0 0 69.08 L0 94.21 A2.3413 2.19862 -180 0 0 2.31 96.38 L42.95 96.38 A2.37475
							 2.23003 -180 0 0 45.29 94.21 L45.29 69.08 A2.37475 2.23003 -180 0 0 42.95 66.92 ZM31.67 66.92 L13.08
							 66.92 L13.08 57.09 A10.6362 9.988 0 0 1 15.99 50.33 A8.39523 7.88361 0 0 1 22.28 47.63 A8.49558 7.97784
							 0 0 1 28.6 50.33 A10.6696 10.0194 0 0 1 29.67 51.68 A10.0341 9.42264 0 0 1 31.71 57.05 L31.67 66.92
							 Z" class="st1"/>
			</g>
			<g id="shape16507-6" transform="translate(0.869626,-0.659585)">
				<title>Sheet.16507</title>
				<path d="M42.18 67.58 L1.47 67.58 A2.20751 2.07298 -180 0 0 0 68.11 L43.65 96.38 A2.24096 2.10439 -180 0 0 44.48
							 94.74 L44.48 69.62 A2.37475 2.23003 -180 0 0 42.18 67.58 Z" class="st2"/>
			</g>
			<g id="shape16508-8" transform="translate(0.0668943,-0.659585)">
				<title>Sheet.16508</title>
				<path d="M2.34 67.58 L43.01 67.58 A2.3413 2.19862 0 0 1 44.52 68.11 L0.84 96.38 A2.3413 2.19862 0 0 1 0 94.74 L0
							 69.62 A2.40819 2.26143 0 0 1 2.34 67.58 Z" class="st3"/>
			</g>
			<g id="shape16509-10" transform="translate(9.96725,-5.18245)">
				<title>Sheet.16509</title>
				<path d="M20.8 96.38 L0 86.64 L20.8 77 L21.74 78.82 L4.85 86.64 L21.74 94.59 L20.8 96.38 Z" class="st4"/>
			</g>
			<g id="shape16510-12" transform="translate(8.26145,-10.9303)">
				<title>Sheet.16510</title>
				<ellipse cx="4.18089" cy="92.4519" rx="4.18089" ry="3.9261" class="st5"/>
			</g>
			<g id="shape16511-16" transform="translate(26.8915,-19.3478)">
				<title>Sheet.16511</title>
				<ellipse cx="4.18089" cy="92.4519" rx="4.18089" ry="3.9261" class="st5"/>
			</g>
			<g id="shape16512-19" transform="translate(26.8915,-2.16721)">
				<title>Sheet.16512</title>
				<ellipse cx="4.18089" cy="92.4519" rx="4.18089" ry="3.9261" class="st5"/>
			</g>
		</g>
	</g>
</svg>
